section-2/hotels.svg

<svg width="32" height="32" viewBox="0 0 32 32" fill="none" xmlns="http://www.w3.org/2000/svg">
<g opacity="0.8">
<path d="M24.2164 30.4865H7.78399C7.66931 30.4865 7.55932 30.4409 7.47822 30.3598C7.39712 30.2787 7.35156 30.1687 7.35156 30.054V4.10809C7.35156 3.9934 7.39712 3.88341 7.47822 3.80232C7.55932 3.72122 7.66931 3.67566 7.78399 3.67566H24.2164C24.3311 3.67566 24.4411 3.72122 24.5222 3.80232C24.6033 3.88341 24.6489 3.9934 24.6489 4.10809V30.054C24.6489 30.1687 24.6033 30.2787 24.5222 30.3598C24.4411 30.4409 24.3311 30.4865 24.2164 30.4865ZM8.21643 29.6216H23.784V4.54052H8.21643V29.6216Z" fill="#313131"/>
<path d="M20.7575 4.54052H11.244C11.1293 4.54052 11.0193 4.49496 10.9382 4.41386C10.8571 4.33276 10.8115 4.22277 10.8115 4.10808V1.94592C10.8115 1.83123 10.8571 1.72124 10.9382 1.64015C11.0193 1.55905 11.1293 1.51349 11.244 1.51349H20.7575C20.8721 1.51349 20.9821 1.55905 21.0632 1.64015C21.1443 1.72124 21.1899 1.83123 21.1899 1.94592V4.10808C21.1899 4.22277 21.1443 4.33276 21.0632 4.41386C20.9821 4.49496 20.8721 4.54052 20.7575 4.54052ZM11.6764 3.67565H20.325V2.37835H11.6764V3.67565Z" fill="#313131"/>
<path d="M30.7021 30.4865H24.2156C24.1009 30.4865 23.991 30.4409 23.9099 30.3598C23.8288 30.2787 23.7832 30.1687 23.7832 30.0541V9.2973C23.7832 9.18261 23.8288 9.07262 23.9099 8.99152C23.991 8.91043 24.1009 8.86487 24.2156 8.86487H30.7021C30.8168 8.86487 30.9268 8.91043 31.0079 8.99152C31.089 9.07262 31.1345 9.18261 31.1345 9.2973V30.0541C31.1345 30.1687 31.089 30.2787 31.0079 30.3598C30.9268 30.4409 30.8168 30.4865 30.7021 30.4865ZM24.6481 29.6216H30.2697V9.72973H24.6481V29.6216Z" fill="#313131"/>
<path d="M7.78415 30.4865H1.29767C1.18298 30.4865 1.07299 30.4409 0.991891 30.3598C0.910794 30.2787 0.865234 30.1687 0.865234 30.0541V9.2973C0.865234 9.18261 0.910794 9.07262 0.991891 8.99152C1.07299 8.91043 1.18298 8.86487 1.29767 8.86487H7.78415C7.89884 8.86487 8.00883 8.91043 8.08993 8.99152C8.17103 9.07262 8.21659 9.18261 8.21659 9.2973V30.0541C8.21659 30.1687 8.17103 30.2787 8.08993 30.3598C8.00883 30.4409 7.89884 30.4865 7.78415 30.4865ZM1.7301 29.6216H7.35172V9.72973H1.7301V29.6216Z" fill="#313131"/>
<path d="M20.4322 10.2703H18.5944C18.365 10.2703 18.145 10.1791 17.9828 10.0169C17.8206 9.85476 17.7295 9.63477 17.7295 9.4054V7.56756C17.7295 7.33819 17.8206 7.1182 17.9828 6.95601C18.145 6.79382 18.365 6.7027 18.5944 6.7027H20.4322C20.6616 6.7027 20.8816 6.79382 21.0437 6.95601C21.2059 7.1182 21.2971 7.33819 21.2971 7.56756V9.4054C21.2971 9.63477 21.2059 9.85476 21.0437 10.0169C20.8816 10.1791 20.6616 10.2703 20.4322 10.2703ZM18.5944 7.56756V9.4054H20.4322V7.56756H18.5944Z" fill="#313131"/>
<path d="M13.4058 10.2703H11.568C11.3386 10.2703 11.1186 10.1791 10.9564 10.0169C10.7942 9.85476 10.7031 9.63477 10.7031 9.4054V7.56756C10.7031 7.33819 10.7942 7.1182 10.9564 6.95601C11.1186 6.79382 11.3386 6.7027 11.568 6.7027H13.4058C13.6352 6.7027 13.8552 6.79382 14.0174 6.95601C14.1796 7.1182 14.2707 7.33819 14.2707 7.56756V9.4054C14.2707 9.63477 14.1796 9.85476 14.0174 10.0169C13.8552 10.1791 13.6352 10.2703 13.4058 10.2703ZM13.4058 7.56756H11.568V9.4054H13.4058V7.56756Z" fill="#313131"/>
<path d="M20.4322 15.6216H18.5944C18.365 15.6216 18.145 15.5305 17.9828 15.3683C17.8206 15.2061 17.7295 14.9862 17.7295 14.7568V12.9189C17.7295 12.6896 17.8206 12.4696 17.9828 12.3074C18.145 12.1452 18.365 12.0541 18.5944 12.0541H20.4322C20.6616 12.0541 20.8816 12.1452 21.0437 12.3074C21.2059 12.4696 21.2971 12.6896 21.2971 12.9189V14.7568C21.2971 14.9862 21.2059 15.2061 21.0437 15.3683C20.8816 15.5305 20.6616 15.6216 20.4322 15.6216ZM18.5944 12.9189V14.7568H20.4322V12.9189H18.5944Z" fill="#313131"/>
<path d="M13.4058 15.6216H11.568C11.3386 15.6216 11.1186 15.5305 10.9564 15.3683C10.7942 15.2061 10.7031 14.9862 10.7031 14.7568V12.9189C10.7031 12.6896 10.7942 12.4696 10.9564 12.3074C11.1186 12.1452 11.3386 12.0541 11.568 12.0541H13.4058C13.6352 12.0541 13.8552 12.1452 14.0174 12.3074C14.1796 12.4696 14.2707 12.6896 14.2707 12.9189V14.7568C14.2707 14.9862 14.1796 15.2061 14.0174 15.3683C13.8552 15.5305 13.6352 15.6216 13.4058 15.6216ZM13.4058 12.9185H11.568V14.7563H13.4058V12.9185Z" fill="#313131"/>
<path d="M20.4322 20.973H18.5944C18.365 20.973 18.145 20.8818 17.9828 20.7196C17.8206 20.5575 17.7295 20.3375 17.7295 20.1081V18.2703C17.7295 18.0409 17.8206 17.8209 17.9828 17.6587C18.145 17.4965 18.365 17.4054 18.5944 17.4054H20.4322C20.6616 17.4054 20.8816 17.4965 21.0437 17.6587C21.2059 17.8209 21.2971 18.0409 21.2971 18.2703V20.1081C21.2971 20.3375 21.2059 20.5575 21.0437 20.7196C20.8816 20.8818 20.6616 20.973 20.4322 20.973ZM18.5944 18.2703V20.1081H20.4322V18.2703H18.5944Z" fill="#313131"/>
<path d="M13.4058 20.973H11.568C11.3386 20.973 11.1186 20.8818 10.9564 20.7196C10.7942 20.5575 10.7031 20.3375 10.7031 20.1081V18.2703C10.7031 18.0409 10.7942 17.8209 10.9564 17.6587C11.1186 17.4965 11.3386 17.4054 11.568 17.4054H13.4058C13.6352 17.4054 13.8552 17.4965 14.0174 17.6587C14.1796 17.8209 14.2707 18.0409 14.2707 18.2703V20.1081C14.2707 20.3375 14.1796 20.5575 14.0174 20.7196C13.8552 20.8818 13.6352 20.973 13.4058 20.973ZM13.4058 18.2698H11.568V20.1081H13.4058V18.2698Z" fill="#313131"/>
<path d="M18.6843 30.4865H13.3152C13.2006 30.4865 13.0906 30.4409 13.0095 30.3598C12.9284 30.2787 12.8828 30.1687 12.8828 30.054V23.1351C12.8828 23.0204 12.9284 22.9105 13.0095 22.8294C13.0906 22.7483 13.2006 22.7027 13.3152 22.7027H18.6843C18.799 22.7027 18.909 22.7483 18.9901 22.8294C19.0712 22.9105 19.1168 23.0204 19.1168 23.1351V30.054C19.1168 30.1687 19.0712 30.2787 18.9901 30.3598C18.909 30.4409 18.799 30.4865 18.6843 30.4865ZM13.7477 29.6216H18.2519V23.5676H13.7477V29.6216Z" fill="#313131"/>
<path d="M28.1347 15.7838H26.7838C26.5544 15.7838 26.3345 15.6927 26.1723 15.5305C26.0101 15.3683 25.9189 15.1483 25.9189 14.9189V13.5676C25.9189 13.3382 26.0101 13.1182 26.1723 12.956C26.3345 12.7938 26.5544 12.7027 26.7838 12.7027H28.1347C28.3641 12.7027 28.5841 12.7938 28.7463 12.956C28.9085 13.1182 28.9996 13.3382 28.9996 13.5676V14.9189C28.9996 15.1483 28.9085 15.3683 28.7463 15.5305C28.5841 15.6927 28.3641 15.7838 28.1347 15.7838ZM26.7838 13.5676V14.9189H28.1347V13.5676H26.7838Z" fill="#313131"/>
<path d="M28.1347 21.216H26.7838C26.5544 21.216 26.3345 21.1249 26.1723 20.9627C26.0101 20.8005 25.9189 20.5805 25.9189 20.3512V19.0002C25.9189 18.7709 26.0101 18.5509 26.1723 18.3887C26.3345 18.2265 26.5544 18.1354 26.7838 18.1354H28.1347C28.3641 18.1354 28.5841 18.2265 28.7463 18.3887C28.9085 18.5509 28.9996 18.7709 28.9996 19.0002V20.3512C28.9996 20.5805 28.9085 20.8005 28.7463 20.9627C28.5841 21.1249 28.3641 21.216 28.1347 21.216ZM26.7838 19.0002V20.3512H28.1347V19.0002H26.7838Z" fill="#313131"/>
<path d="M28.1347 26.6486H26.7838C26.5544 26.6486 26.3345 26.5575 26.1723 26.3953C26.0101 26.2331 25.9189 26.0132 25.9189 25.7838V24.4324C25.9189 24.2031 26.0101 23.9831 26.1723 23.8209C26.3345 23.6587 26.5544 23.5676 26.7838 23.5676H28.1347C28.3641 23.5676 28.5841 23.6587 28.7463 23.8209C28.9085 23.9831 28.9996 24.2031 28.9996 24.4324V25.7838C28.9996 26.0132 28.9085 26.2331 28.7463 26.3953C28.5841 26.5575 28.3641 26.6486 28.1347 26.6486ZM26.7838 24.4324V25.7838H28.1347V24.4324H26.7838Z" fill="#313131"/>
<path d="M5.21579 15.7838H3.86487C3.63549 15.7838 3.41551 15.6927 3.25331 15.5305C3.09112 15.3683 3 15.1483 3 14.9189V13.5676C3 13.3382 3.09112 13.1182 3.25331 12.956C3.41551 12.7938 3.63549 12.7027 3.86487 12.7027H5.21579C5.44516 12.7027 5.66514 12.7938 5.82734 12.956C5.98953 13.1182 6.08065 13.3382 6.08065 13.5676V14.9189C6.08065 15.1483 5.98953 15.3683 5.82734 15.5305C5.66514 15.6927 5.44516 15.7838 5.21579 15.7838ZM3.86487 13.5676V14.9189H5.21579V13.5676H3.86487Z" fill="#313131"/>
<path d="M5.21579 21.216H3.86487C3.63549 21.216 3.41551 21.1249 3.25331 20.9627C3.09112 20.8005 3 20.5805 3 20.3512V19.0002C3 18.7709 3.09112 18.5509 3.25331 18.3887C3.41551 18.2265 3.63549 18.1354 3.86487 18.1354H5.21579C5.44516 18.1354 5.66514 18.2265 5.82734 18.3887C5.98953 18.5509 6.08065 18.7709 6.08065 19.0002V20.3512C6.08065 20.5805 5.98953 20.8005 5.82734 20.9627C5.66514 21.1249 5.44516 21.216 5.21579 21.216ZM3.86487 19.0002V20.3512H5.21579V19.0002H3.86487Z" fill="#313131"/>
<path d="M5.21579 26.6486H3.86487C3.63549 26.6486 3.41551 26.5575 3.25331 26.3953C3.09112 26.2331 3 26.0132 3 25.7838V24.4324C3 24.2031 3.09112 23.9831 3.25331 23.8209C3.41551 23.6587 3.63549 23.5676 3.86487 23.5676H5.21579C5.44516 23.5676 5.66514 23.6587 5.82734 23.8209C5.98953 23.9831 6.08065 24.2031 6.08065 24.4324V25.7838C6.08065 26.0132 5.98953 26.2331 5.82734 26.3953C5.66514 26.5575 5.44516 26.6486 5.21579 26.6486ZM3.86487 24.4324V25.7838H5.21579V24.4324H3.86487Z" fill="#313131"/>
</g>
</svg>

<svg xmlns="http://www.w3.org/2000/svg" width="32" height="32" fill="none"><g fill="#313131" opacity=".8"><path d="M24.216 30.486H7.784a.432.432 0 0 1-.432-.432V4.108a.432.432 0 0 1 .432-.432h16.432a.432.432 0 0 1 .433.432v25.946a.433.433 0 0 1-.433.433Zm-16-.864h15.568V4.54H8.216v25.08Z"/><path d="M20.758 4.54h-9.514a.432.432 0 0 1-.432-.432V1.946a.432.432 0 0 1 .432-.433h9.514a.432.432 0 0 1 .432.433v2.162a.432.432 0 0 1-.433.433Zm-9.082-.864h8.649V2.378h-8.649v1.298ZM30.702 30.486h-6.486a.432.432 0 0 1-.433-.432V9.297a.432.432 0 0 1 .433-.432h6.486a.432.432 0 0 1 .432.432v20.757a.432.432 0 0 1-.432.433Zm-6.054-.864h5.622V9.73h-5.622v19.892ZM7.784 30.486H1.298a.432.432 0 0 1-.433-.432V9.297a.432.432 0 0 1 .433-.432h6.486a.432.432 0 0 1 .433.432v20.757a.432.432 0 0 1-.433.433Zm-6.054-.864h5.622V9.73H1.73v19.892ZM20.432 10.27h-1.838a.865.865 0 0 1-.864-.865V7.568a.865.865 0 0 1 .864-.865h1.838a.865.865 0 0 1 .865.865v1.837a.865.865 0 0 1-.865.865Zm-1.838-2.702v1.837h1.838V7.568h-1.838ZM13.406 10.27h-1.838a.865.865 0 0 1-.865-.865V7.568a.865.865 0 0 1 .865-.865h1.838a.865.865 0 0 1 .865.865v1.837a.865.865 0 0 1-.865.865Zm0-2.702h-1.838v1.837h1.838V7.568ZM20.432 15.622h-1.838a.865.865 0 0 1-.864-.865v-1.838a.865.865 0 0 1 .864-.865h1.838a.865.865 0 0 1 .865.865v1.838a.865.865 0 0 1-.865.865Zm-1.838-2.703v1.838h1.838v-1.838h-1.838ZM13.406 15.622h-1.838a.865.865 0 0 1-.865-.865v-1.838a.865.865 0 0 1 .865-.865h1.838a.865.865 0 0 1 .865.865v1.838a.865.865 0 0 1-.865.865Zm0-2.704h-1.838v1.838h1.838v-1.838ZM20.432 20.973h-1.838a.865.865 0 0 1-.864-.865V18.27a.865.865 0 0 1 .864-.865h1.838a.865.865 0 0 1 .865.865v1.838a.865.865 0 0 1-.865.865Zm-1.838-2.703v1.838h1.838V18.27h-1.838ZM13.406 20.973h-1.838a.865.865 0 0 1-.865-.865V18.27a.865.865 0 0 1 .865-.865h1.838a.865.865 0 0 1 .865.865v1.838a.865.865 0 0 1-.865.865Zm0-2.703h-1.838v1.838h1.838V18.27ZM18.684 30.486h-5.369a.432.432 0 0 1-.432-.432v-6.919a.432.432 0 0 1 .432-.432h5.37a.433.433 0 0 1 .432.432v6.919a.433.433 0 0 1-.433.433Zm-4.936-.864h4.504v-6.054h-4.504v6.054Z"/><path d="M28.135 15.784h-1.351a.865.865 0 0 1-.865-.865v-1.351a.865.865 0 0 1 .865-.865h1.35a.865.865 0 0 1 .866.865v1.35a.865.865 0 0 1-.865.866Zm-1.351-2.216v1.35h1.35v-1.35h-1.35ZM28.135 21.216h-1.351a.865.865 0 0 1-.865-.865v-1.35a.865.865 0 0 1 .865-.866h1.35A.865.865 0 0 1 29 19v1.351a.865.865 0 0 1-.865.865ZM26.784 19v1.351h1.35v-1.35h-1.35ZM28.135 26.649h-1.351a.865.865 0 0 1-.865-.865v-1.352a.865.865 0 0 1 .865-.864h1.35a.865.865 0 0 1 .866.864v1.352a.865.865 0 0 1-.865.865Zm-1.351-2.217v1.352h1.35v-1.352h-1.35ZM5.216 15.784H3.865A.865.865 0 0 1 3 14.919v-1.351a.865.865 0 0 1 .865-.865h1.35a.865.865 0 0 1 .866.865v1.35a.865.865 0 0 1-.865.866Zm-1.351-2.216v1.35h1.35v-1.35h-1.35ZM5.216 21.216H3.865A.865.865 0 0 1 3 20.351v-1.35a.865.865 0 0 1 .865-.866h1.35a.865.865 0 0 1 .866.865v1.351a.865.865 0 0 1-.865.865ZM3.865 19v1.351h1.35v-1.35h-1.35ZM5.216 26.649H3.865A.865.865 0 0 1 3 25.784v-1.352a.865.865 0 0 1 .865-.864h1.35a.865.865 0 0 1 .866.864v1.352a.865.865 0 0 1-.865.865Zm-1.351-2.217v1.352h1.35v-1.352h-1.35Z"/></g></svg>
